X: 13300
T: Flagstone Of Memories
R: reel
M: 4/4
K: Gmajor
|:GA|B3 B BAGA|BD D2 EGGA|BD D2 EGGA|BddB A2 GA|
B2 Bd BAGA|BD D2 EGGA|Bd d2 efge|dBAB G2:|
|:B/c/d|g2 ge f3 d|efed BAGA|B/c/d ef gfgd|B/c/d ef gdBd|
g2 ge f3 d|efed BAGA|Bd d2 efge|dBAB G2:|

